X:1
T: JJ's Reel
C:
R:Reel
Q: 232
K:G
M:4/4
L:1/8
D2|:G2 DB, G,B, DB,|CD EF G2 FE|D2 GA BG dB|AB AG FD EF|
G2 DB, G,B, DB,|CD EF G2 FE|D2 GB AD FA|1G4 GD EF:|2G4 GD GA|
BD DB DD BD|cE Ec EE cE|BD DB DD BD|AB AG FD GA|
BD DB DD BD|cE Ec EE cE|BA GB AG FA|G4 GD GA|
BD DB dD BD|cE Ec eE cE|BD DB dD BD|AB AG FD GA|
G2 DB, G,B, DB,|CD EF G2 FE|D2 GB AD FA|G2 G2 G2||
